build/category/AcuringModernSolid.svg

<svg xmlns="http://www.w3.org/2000/svg" fill="none" viewBox="0 0 24 24" focusable="false"><path d="M0 0H24V24H0z"/><path fill="#74767B" fill-rule="evenodd" d="M8.5 2C6.84315 2 5.5 3.34315 5.5 5L5.95192 16.75C5.97877 17.448 6.55243 18 7.25096 18L7.26917 18L7.26917 18.0045L7.26917 20.3C7.26917 21.2389 8.03028 22 8.96916 22L15.3195 22C16.2584 22 17.0195 21.2389 17.0195 20.3L17.0195 18.0045C17.0195 17.9936 17.0194 17.9827 17.0191 17.9719C17.59 17.8512 18.0248 17.3555 18.0481 16.75L18.5 5C18.5 3.34315 17.1569 2 15.5 2L8.5 2ZM9.38074 4.52261C8.64424 4.52261 8.05483 5.13386 8.0816 5.86987L8.17585 8.46082C8.20112 9.15559 8.76857 9.70751 9.46378 9.71351L14.4882 9.75684C15.1917 9.76291 15.7724 9.20827 15.7986 8.50526L15.8966 5.87098C15.924 5.13455 15.3345 4.52261 14.5975 4.52261L9.38074 4.52261ZM10.6216 12C10.9806 12 11.2716 12.291 11.2716 12.65C11.2716 13.009 10.9806 13.3 10.6216 13.3L8.92475 13.3C8.56577 13.3 8.27475 13.009 8.27475 12.65C8.27475 12.291 8.56577 12 8.92475 12L10.6216 12ZM11.2716 15.1078C11.2716 14.7488 10.9806 14.4578 10.6216 14.4578L8.92475 14.4578C8.56577 14.4578 8.27475 14.7488 8.27475 15.1078C8.27475 15.4667 8.56577 15.7578 8.92475 15.7578L10.6216 15.7578C10.9806 15.7578 11.2716 15.4667 11.2716 15.1078ZM15.0547 12C15.4137 12 15.7047 12.291 15.7047 12.65C15.7047 13.009 15.4137 13.3 15.0547 13.3L13.3579 13.3C12.9989 13.3 12.7079 13.009 12.7079 12.65C12.7079 12.291 12.9989 12 13.3579 12L15.0547 12ZM15.7047 15.1078C15.7047 14.7488 15.4137 14.4578 15.0547 14.4578L13.3579 14.4578C12.9989 14.4578 12.7079 14.7488 12.7079 15.1078C12.7079 15.4667 12.9989 15.7578 13.3579 15.7578L15.0547 15.7578C15.4137 15.7578 15.7047 15.4667 15.7047 15.1078ZM9.98853 18.0045L8.56917 18.0045L8.56917 20.3C8.56917 20.5209 8.74825 20.7 8.96916 20.7L9.98853 20.7L9.98853 18.0045ZM11.2885 18.0045L11.2885 20.7L15.3195 20.7C15.5404 20.7 15.7195 20.5209 15.7195 20.3L15.7195 18.0045L11.2885 18.0045Z"/></svg>

<svg xmlns="http://www.w3.org/2000/svg" fill="none" viewBox="0 0 24 24" focusable="false"><path fill="#74767B" fill-rule="evenodd" d="M8.5 2c-1.66 0-3 1.34-3 3l.45 11.75c.02.69.6 1.25 1.3 1.25h.01v2.29c0 .94.77 1.71 1.7 1.71h6.35c.94 0 1.7-.77 1.7-1.71v-2.32c.57-.12 1.01-.62 1.03-1.22L18.5 5c0-1.66-1.35-3-3-3zm.88 2.52c-.74 0-1.33.61-1.3 1.34l.09 2.6c.03.69.59 1.24 1.29 1.25l5.02.04c.71.01 1.29-.55 1.31-1.25l.1-2.63c.03-.74-.56-1.35-1.3-1.35zM10.62 12c.36 0 .65.29.65.65 0 .35-.29.65-.65.65h-1.7c-.36 0-.65-.3-.65-.65 0-.36.29-.65.65-.65zm.65 3.1c0-.36-.29-.65-.65-.65h-1.7c-.36 0-.65.29-.65.65s.29.65.65.65h1.7c.36 0 .65-.29.65-.65m3.78-3.1c.36 0 .65.29.65.65 0 .35-.29.65-.65.65h-1.7c-.36 0-.65-.3-.65-.65 0-.36.29-.65.65-.65zm.65 3.1c0-.36-.29-.65-.65-.65h-1.7c-.36 0-.65.29-.65.65s.29.65.65.65h1.7c.36 0 .65-.29.65-.65M9.98 18H8.56v2.29c0 .23.18.41.4.41h1.02zm1.3 0v2.7h4.03c.23 0 .4-.18.4-.41V18z"/></svg>
